icons/actions/22/colorfx.svg

<svg xmlns="http://www.w3.org/2000/svg" viewBox="0 0 22 22">
 <defs>
  <clipPath>
   <path d="m7 1023.36h1v1h-1z" style="fill:#f2f2f2"/>
  </clipPath>
  <clipPath>
   <path d="m7 1023.36h1v1h-1z" style="fill:#f2f2f2"/>
  </clipPath>
 </defs>
 <path d="m10.5 3v1.8125h1v-1.8125h-1m-4.8125 1.96875l-.71875.71875 1.28125 1.3125.71875-.75-1.28125-1.28125m10.625 0l-1.28125 1.28125.71875.75 1.28125-1.3125-.71875-.71875m-5.3125 1.03125c-2.76142 0-5 2.2386-5 5 0 2.7614 2.23858 5 5 5 2.76142 0 5-2.2386 5-5 0-2.7614-2.23858-5-5-5m-8 4.5v1h1.8125v-1h-1.8125m14.1875 0v1h1.8125v-1h-1.8125m-10.9375 4.53125l-1.28125 1.28125.71875.71875 1.28125-1.28125-.71875-.71875m9.5 0l-.71875.71875 1.28125 1.28125.71875-.71875-1.28125-1.28125m-5.25 2.15625v1.8125h1v-1.8125h-1" style="fill:#1d99f3"/>
</svg>

<?xml version="1.0"?>
<!-- Created with Inkscape (http://www.inkscape.org/) -->
<svg xmlns:dc="http://purl.org/dc/elements/1.1/" xmlns:cc="http://creativecommons.org/ns#" xmlns:rdf="http://www.w3.org/1999/02/22-rdf-syntax-ns#" xmlns:svg="http://www.w3.org/2000/svg" xmlns="http://www.w3.org/2000/svg" xmlns:sodipodi="http://sodipodi.sourceforge.net/DTD/sodipodi-0.dtd" xmlns:inkscape="http://www.inkscape.org/namespaces/inkscape" width="22" height="22" id="svg4355" version="1.1" inkscape:version="0.91 r13725" sodipodi:docname="colorfx.svg">
  <defs id="defs4357">
    <style type="text/css" id="current-color-scheme">
      .ColorScheme-Text {
        color:#4d4d4d;
      }
      .ColorScheme-Background {
        color:#eff0f1;
      }
      .ColorScheme-Highlight {
        color:#3daee9;
      }
      .ColorScheme-ViewText {
        color:#31363b;
      }
      .ColorScheme-ViewBackground {
        color:#fcfcfc;
      }
      .ColorScheme-ViewHover {
        color:#93cee9;
      }
      .ColorScheme-ViewFocus{
        color:#3daee9;
      }
      .ColorScheme-ButtonText {
        color:#31363b;
      }
      .ColorScheme-ButtonBackground {
        color:#eff0f1;
      }
      .ColorScheme-ButtonHover {
        color:#93cee9;
      }
      .ColorScheme-ButtonFocus{
        color:#3daee9;
      }
      </style>
    <clipPath id="clipPath4160" clipPathUnits="userSpaceOnUse">
      <rect y="1023.3622" x="7" height="1" width="1" id="rect4162" style="opacity:1;fill:#f2f2f2;fill-opacity:1;stroke:none;stroke-opacity:1"/>
    </clipPath>
    <clipPath clipPathUnits="userSpaceOnUse" id="clipPath4160-9">
      <rect style="opacity:1;fill:#f2f2f2;fill-opacity:1;stroke:none;stroke-opacity:1" id="rect4162-4" width="1" height="1" x="7" y="1023.3622"/>
    </clipPath>
  </defs>
  <sodipodi:namedview id="base" pagecolor="#ffffff" bordercolor="#666666" borderopacity="1.0" inkscape:pageopacity="0.0" inkscape:pageshadow="2" inkscape:zoom="11.707099" inkscape:cx="3.9057937" inkscape:cy="7.3476846" inkscape:document-units="px" inkscape:current-layer="layer1" showgrid="true" width="0px" height="0px" fit-margin-top="0" fit-margin-left="0" fit-margin-right="0" fit-margin-bottom="0" inkscape:window-width="1366" inkscape:window-height="709" inkscape:window-x="-4" inkscape:window-y="0" inkscape:window-maximized="1" inkscape:showpageshadow="false" inkscape:snap-bbox="true" inkscape:snap-global="true" inkscape:object-nodes="true" showguides="true" inkscape:guide-bbox="true">
    <inkscape:grid type="xygrid" id="grid4114"/>
    <sodipodi:guide position="2,13" orientation="18,0" id="guide4120"/>
    <sodipodi:guide position="2.0000011,1.9999962" orientation="0,18" id="guide4122"/>
    <sodipodi:guide position="20.000001,1.9999962" orientation="-18,0" id="guide4124"/>
    <sodipodi:guide position="20.000001,19.999996" orientation="0,-18" id="guide4126"/>
    <sodipodi:guide position="3,6" orientation="16,0" id="guide4128"/>
    <sodipodi:guide position="3.0000011,2.9999962" orientation="0,16" id="guide4130"/>
    <sodipodi:guide position="6,19" orientation="0,-16" id="guide4134"/>
    <sodipodi:guide position="19,11" orientation="1,0" id="guide4431"/>
  </sodipodi:namedview>
  <metadata id="metadata4360">
    <rdf:RDF>
      <cc:Work rdf:about="">
        <dc:format>image/svg+xml</dc:format>
        <dc:type rdf:resource="http://purl.org/dc/dcmitype/StillImage"/>
        <dc:title/>
      </cc:Work>
    </rdf:RDF>
  </metadata>
  <g inkscape:label="Capa 1" inkscape:groupmode="layer" id="layer1" transform="translate(-544.57141,-742.93359)">
    <rect style="fill:currentColor;fill-opacity:1;stroke:none" id="rect4035" width="0" height="10.999983" x="507.10324" y="747.55408" class="ColorScheme-Text"/>
    <rect style="fill:currentColor;fill-opacity:1;stroke:none" id="rect4035-5" width="0" height="10.999983" x="525.14404" y="745.50281" class="ColorScheme-Text"/>
    <rect style="fill:currentColor;fill-opacity:1;stroke:none" id="rect4035-8" width="0" height="10.999983" x="507.10324" y="747.55408" class="ColorScheme-Text"/>
    <rect style="fill:currentColor;fill-opacity:1;stroke:none" id="rect4035-59" width="0" height="10.999983" x="507.10324" y="747.55408" class="ColorScheme-Text"/>
    <rect style="fill:currentColor;fill-opacity:1;stroke:none" id="rect4035-6" width="0" height="10.999983" x="499.7951" y="742.71948" class="ColorScheme-Text"/>
    <rect style="fill:currentColor;fill-opacity:1;stroke:none" id="rect4035-5-1" width="0" height="10.999983" x="517.83588" y="740.66809" class="ColorScheme-Text"/>
    <rect style="fill:currentColor;fill-opacity:1;stroke:none" id="rect4035-8-3" width="0" height="10.999983" x="499.7951" y="742.71948" class="ColorScheme-Text"/>
    <rect style="fill:currentColor;fill-opacity:1;stroke:none" id="rect4035-59-4" width="0" height="10.999983" x="499.7951" y="742.71948" class="ColorScheme-Text"/>
    <rect style="fill:currentColor;fill-opacity:1;stroke:none" id="rect4035-1" width="0" height="10.999983" x="505.81027" y="746.93567" class="ColorScheme-Text"/>
    <rect style="fill:currentColor;fill-opacity:1;stroke:none" id="rect4035-5-0" width="0" height="10.999983" x="523.85107" y="744.8844" class="ColorScheme-Text"/>
    <rect style="fill:currentColor;fill-opacity:1;stroke:none" id="rect4035-8-1" width="0" height="10.999983" x="505.81027" y="746.93567" class="ColorScheme-Text"/>
    <rect style="fill:currentColor;fill-opacity:1;stroke:none" id="rect4035-59-1" width="0" height="10.999983" x="505.81027" y="746.93567" class="ColorScheme-Text"/>
    <rect y="747.55408" x="507.10324" height="10.999983" width="0" id="rect4035-7" style="fill:currentColor;fill-opacity:1;stroke:none" class="ColorScheme-Text"/>
    <rect y="745.50281" x="525.14404" height="10.999983" width="0" id="rect4035-5-7" style="fill:currentColor;fill-opacity:1;stroke:none" class="ColorScheme-Text"/>
    <rect y="747.55408" x="507.10324" height="10.999983" width="0" id="rect4035-8-16" style="fill:currentColor;fill-opacity:1;stroke:none" class="ColorScheme-Text"/>
    <rect y="747.55408" x="507.10324" height="10.999983" width="0" id="rect4035-59-18" style="fill:currentColor;fill-opacity:1;stroke:none" class="ColorScheme-Text"/>
    <rect y="742.71948" x="499.7951" height="10.999983" width="0" id="rect4035-6-5" style="fill:currentColor;fill-opacity:1;stroke:none" class="ColorScheme-Text"/>
    <rect y="740.66809" x="517.83588" height="10.999983" width="0" id="rect4035-5-1-8" style="fill:currentColor;fill-opacity:1;stroke:none" class="ColorScheme-Text"/>
    <rect y="742.71948" x="499.7951" height="10.999983" width="0" id="rect4035-8-3-8" style="fill:currentColor;fill-opacity:1;stroke:none" class="ColorScheme-Text"/>
    <rect y="742.71948" x="499.7951" height="10.999983" width="0" id="rect4035-59-4-7" style="fill:currentColor;fill-opacity:1;stroke:none" class="ColorScheme-Text"/>
    <rect y="746.93567" x="505.81027" height="10.999983" width="0" id="rect4035-1-7" style="fill:currentColor;fill-opacity:1;stroke:none" class="ColorScheme-Text"/>
    <rect y="744.8844" x="523.85107" height="10.999983" width="0" id="rect4035-5-0-8" style="fill:currentColor;fill-opacity:1;stroke:none" class="ColorScheme-Text"/>
    <rect y="746.93567" x="505.81027" height="10.999983" width="0" id="rect4035-8-1-0" style="fill:currentColor;fill-opacity:1;stroke:none" class="ColorScheme-Text"/>
    <rect y="746.93567" x="505.81027" height="10.999983" width="0" id="rect4035-59-1-3" style="fill:currentColor;fill-opacity:1;stroke:none" class="ColorScheme-Text"/>
    <rect y="750.93359" x="504.57141" height="10.999983" width="0" id="rect4035-0" style="fill:currentColor;fill-opacity:1;stroke:none" class="ColorScheme-Text"/>
    <rect y="748.88232" x="522.61218" height="10.999983" width="0" id="rect4035-5-5" style="fill:currentColor;fill-opacity:1;stroke:none" class="ColorScheme-Text"/>
    <rect y="750.93359" x="504.57141" height="10.999983" width="0" id="rect4035-8-6" style="fill:currentColor;fill-opacity:1;stroke:none" class="ColorScheme-Text"/>
    <rect y="750.93359" x="504.57141" height="10.999983" width="0" id="rect4035-59-11" style="fill:currentColor;fill-opacity:1;stroke:none" class="ColorScheme-Text"/>
    <rect y="747.29968" x="488.58331" height="10.999983" width="0" id="rect4035-9" style="fill:currentColor;fill-opacity:1;stroke:none" class="ColorScheme-Text"/>
    <rect y="745.24841" x="506.62408" height="10.999983" width="0" id="rect4035-5-8" style="fill:currentColor;fill-opacity:1;stroke:none" class="ColorScheme-Text"/>
    <rect y="747.29968" x="488.58331" height="10.999983" width="0" id="rect4035-8-0" style="fill:currentColor;fill-opacity:1;stroke:none" class="ColorScheme-Text"/>
    <rect y="747.29968" x="488.58331" height="10.999983" width="0" id="rect4035-59-1-8" style="fill:currentColor;fill-opacity:1;stroke:none" class="ColorScheme-Text"/>
    <path style="fill:#1d99f3;fill-opacity:1;stroke:none" d="M 10.5 3 L 10.5 4.8125 L 11.5 4.8125 L 11.5 3 L 10.5 3 z M 5.6875 4.96875 L 4.96875 5.6875 L 6.25 7 L 6.96875 6.25 L 5.6875 4.96875 z M 16.3125 4.96875 L 15.03125 6.25 L 15.75 7 L 17.03125 5.6875 L 16.3125 4.96875 z M 11 6 C 8.23858 6 6 8.2386 6 11 C 6 13.7614 8.23858 16 11 16 C 13.76142 16 16 13.7614 16 11 C 16 8.2386 13.76142 6 11 6 z M 3 10.5 L 3 11.5 L 4.8125 11.5 L 4.8125 10.5 L 3 10.5 z M 17.1875 10.5 L 17.1875 11.5 L 19 11.5 L 19 10.5 L 17.1875 10.5 z M 6.25 15.03125 L 4.96875 16.3125 L 5.6875 17.03125 L 6.96875 15.75 L 6.25 15.03125 z M 15.75 15.03125 L 15.03125 15.75 L 16.3125 17.03125 L 17.03125 16.3125 L 15.75 15.03125 z M 10.5 17.1875 L 10.5 19 L 11.5 19 L 11.5 17.1875 L 10.5 17.1875 z " transform="translate(544.57141,742.93359)" id="rect4148"/>
    <rect style="fill:currentColor;fill-opacity:1;stroke:none" id="rect4035-69" width="0" height="10.999983" x="507.10324" y="747.55408" class="ColorScheme-Text"/>
    <rect style="fill:currentColor;fill-opacity:1;stroke:none" id="rect4035-5-4" width="0" height="10.999983" x="525.14404" y="745.50281" class="ColorScheme-Text"/>
    <rect style="fill:currentColor;fill-opacity:1;stroke:none" id="rect4035-8-72" width="0" height="10.999983" x="507.10324" y="747.55408" class="ColorScheme-Text"/>
    <rect style="fill:currentColor;fill-opacity:1;stroke:none" id="rect4035-59-0" width="0" height="10.999983" x="507.10324" y="747.55408" class="ColorScheme-Text"/>
    <rect style="fill:currentColor;fill-opacity:1;stroke:none" id="rect4035-6-9" width="0" height="10.999983" x="499.7951" y="742.71948" class="ColorScheme-Text"/>
    <rect style="fill:currentColor;fill-opacity:1;stroke:none" id="rect4035-5-1-1" width="0" height="10.999983" x="517.83588" y="740.66809" class="ColorScheme-Text"/>
    <rect style="fill:currentColor;fill-opacity:1;stroke:none" id="rect4035-8-3-7" width="0" height="10.999983" x="499.7951" y="742.71948" class="ColorScheme-Text"/>
    <rect style="fill:currentColor;fill-opacity:1;stroke:none" id="rect4035-59-4-5" width="0" height="10.999983" x="499.7951" y="742.71948" class="ColorScheme-Text"/>
    <rect style="fill:currentColor;fill-opacity:1;stroke:none" id="rect4035-1-1" width="0" height="10.999983" x="505.81027" y="746.93567" class="ColorScheme-Text"/>
    <rect style="fill:currentColor;fill-opacity:1;stroke:none" id="rect4035-5-0-2" width="0" height="10.999983" x="523.85107" y="744.8844" class="ColorScheme-Text"/>
    <rect style="fill:currentColor;fill-opacity:1;stroke:none" id="rect4035-8-1-4" width="0" height="10.999983" x="505.81027" y="746.93567" class="ColorScheme-Text"/>
    <rect style="fill:currentColor;fill-opacity:1;stroke:none" id="rect4035-59-1-7" width="0" height="10.999983" x="505.81027" y="746.93567" class="ColorScheme-Text"/>
    <rect y="747.55408" x="507.10324" height="10.999983" width="0" id="rect4035-7-1" style="fill:currentColor;fill-opacity:1;stroke:none" class="ColorScheme-Text"/>
    <rect y="745.50281" x="525.14404" height="10.999983" width="0" id="rect4035-5-7-6" style="fill:currentColor;fill-opacity:1;stroke:none" class="ColorScheme-Text"/>
    <rect y="747.55408" x="507.10324" height="10.999983" width="0" id="rect4035-8-16-2" style="fill:currentColor;fill-opacity:1;stroke:none" class="ColorScheme-Text"/>
    <rect y="747.55408" x="507.10324" height="10.999983" width="0" id="rect4035-59-18-3" style="fill:currentColor;fill-opacity:1;stroke:none" class="ColorScheme-Text"/>
    <rect y="742.71948" x="499.7951" height="10.999983" width="0" id="rect4035-6-5-7" style="fill:currentColor;fill-opacity:1;stroke:none" class="ColorScheme-Text"/>
    <rect y="740.66809" x="517.83588" height="10.999983" width="0" id="rect4035-5-1-8-8" style="fill:currentColor;fill-opacity:1;stroke:none" class="ColorScheme-Text"/>
    <rect y="742.71948" x="499.7951" height="10.999983" width="0" id="rect4035-8-3-8-9" style="fill:currentColor;fill-opacity:1;stroke:none" class="ColorScheme-Text"/>
    <rect y="742.71948" x="499.7951" height="10.999983" width="0" id="rect4035-59-4-7-6" style="fill:currentColor;fill-opacity:1;stroke:none" class="ColorScheme-Text"/>
    <rect y="746.93567" x="505.81027" height="10.999983" width="0" id="rect4035-1-7-1" style="fill:currentColor;fill-opacity:1;stroke:none" class="ColorScheme-Text"/>
    <rect y="744.8844" x="523.85107" height="10.999983" width="0" id="rect4035-5-0-8-1" style="fill:currentColor;fill-opacity:1;stroke:none" class="ColorScheme-Text"/>
    <rect y="746.93567" x="505.81027" height="10.999983" width="0" id="rect4035-8-1-0-5" style="fill:currentColor;fill-opacity:1;stroke:none" class="ColorScheme-Text"/>
    <rect y="746.93567" x="505.81027" height="10.999983" width="0" id="rect4035-59-1-3-6" style="fill:currentColor;fill-opacity:1;stroke:none" class="ColorScheme-Text"/>
    <rect y="750.93359" x="504.57141" height="10.999983" width="0" id="rect4035-0-5" style="fill:currentColor;fill-opacity:1;stroke:none" class="ColorScheme-Text"/>
    <rect y="748.88232" x="522.61218" height="10.999983" width="0" id="rect4035-5-5-1" style="fill:currentColor;fill-opacity:1;stroke:none" class="ColorScheme-Text"/>
    <rect y="750.93359" x="504.57141" height="10.999983" width="0" id="rect4035-8-6-9" style="fill:currentColor;fill-opacity:1;stroke:none" class="ColorScheme-Text"/>
    <rect y="750.93359" x="504.57141" height="10.999983" width="0" id="rect4035-59-11-7" style="fill:currentColor;fill-opacity:1;stroke:none" class="ColorScheme-Text"/>
    <rect y="747.29968" x="488.58331" height="10.999983" width="0" id="rect4035-9-9" style="fill:currentColor;fill-opacity:1;stroke:none" class="ColorScheme-Text"/>
    <rect y="745.24841" x="506.62408" height="10.999983" width="0" id="rect4035-5-8-5" style="fill:currentColor;fill-opacity:1;stroke:none" class="ColorScheme-Text"/>
    <rect y="747.29968" x="488.58331" height="10.999983" width="0" id="rect4035-8-0-9" style="fill:currentColor;fill-opacity:1;stroke:none" class="ColorScheme-Text"/>
    <rect y="747.29968" x="488.58331" height="10.999983" width="0" id="rect4035-59-1-8-3" style="fill:currentColor;fill-opacity:1;stroke:none" class="ColorScheme-Text"/>
    <rect style="fill:currentColor;fill-opacity:1;stroke:none" id="rect4035-3" width="0" height="10.999983" x="507.10324" y="747.55408" class="ColorScheme-Text"/>
    <rect style="fill:currentColor;fill-opacity:1;stroke:none" id="rect4035-5-2" width="0" height="10.999983" x="525.14404" y="745.50281" class="ColorScheme-Text"/>
    <rect style="fill:currentColor;fill-opacity:1;stroke:none" id="rect4035-8-7" width="0" height="10.999983" x="507.10324" y="747.55408" class="ColorScheme-Text"/>
    <rect style="fill:currentColor;fill-opacity:1;stroke:none" id="rect4035-59-43" width="0" height="10.999983" x="507.10324" y="747.55408" class="ColorScheme-Text"/>
    <rect style="fill:currentColor;fill-opacity:1;stroke:none" id="rect4035-6-2" width="0" height="10.999983" x="499.7951" y="742.71948" class="ColorScheme-Text"/>
    <rect style="fill:currentColor;fill-opacity:1;stroke:none" id="rect4035-5-1-6" width="0" height="10.999983" x="517.83588" y="740.66809" class="ColorScheme-Text"/>
    <rect style="fill:currentColor;fill-opacity:1;stroke:none" id="rect4035-8-3-4" width="0" height="10.999983" x="499.7951" y="742.71948" class="ColorScheme-Text"/>
    <rect style="fill:currentColor;fill-opacity:1;stroke:none" id="rect4035-59-4-8" width="0" height="10.999983" x="499.7951" y="742.71948" class="ColorScheme-Text"/>
    <rect style="fill:currentColor;fill-opacity:1;stroke:none" id="rect4035-1-8" width="0" height="10.999983" x="505.81027" y="746.93567" class="ColorScheme-Text"/>
    <rect style="fill:currentColor;fill-opacity:1;stroke:none" id="rect4035-5-0-0" width="0" height="10.999983" x="523.85107" y="744.8844" class="ColorScheme-Text"/>
    <rect style="fill:currentColor;fill-opacity:1;stroke:none" id="rect4035-8-1-3" width="0" height="10.999983" x="505.81027" y="746.93567" class="ColorScheme-Text"/>
    <rect style="fill:currentColor;fill-opacity:1;stroke:none" id="rect4035-59-1-1" width="0" height="10.999983" x="505.81027" y="746.93567" class="ColorScheme-Text"/>
  </g>
</svg>
